Exercise 1/FHS-SW-Blatt1-Richard-Fussenegger-3-rhizomik.svg

<!DOCTYPE svg PUBLIC "-//W3C//DTD SVG 1.0//EN" "http://www.w3.org/TR/2001/REC-SVG-20010904/DTD/svg10.dtd" [
 <!ATTLIST svg xmlns:xlink CDATA #FIXED "http://www.w3.org/1999/xlink">
]><svg width="670pt" height="385pt" viewBox="0.00 0.00 670.00 385.00" xmlns="http://www.w3.org/2000/svg" xmlns:xlink="http://www.w3.org/1999/xlink"><g class="graph" transform="translate(4 381)"><title>d1e138</title><polygon points="-4,4 -4,-381 666,-381 666,4 -4,4" fill="#fff" stroke="#fff"/><text text-anchor="middle" x="331" y="-7.9" font-family="Times New Roman" font-size="14">Powered by http://rhizomik.net</text><g class="node"><title>http://sws.geonames.org/2781503</title><a xlink:href="http://sws.geonames.org/2781503" xlink:title="http://sws.geonames.org/2781503"><polygon points="625,-377.5 445,-377.5 445,-356.5 625,-356.5 625,-377.5" stroke="#000" fill="none"/><text text-anchor="middle" x="535" y="-364.5" font-family="Times New Roman" font-size="10" fill="#00f">http://sws.geonames.org/2781503</text></a></g><g class="node"><title>https://commons.wikimedia.org/wiki/File:Kunsthaus_Bregenz.jpg</title><a xlink:href="https://commons.wikimedia.org/wiki/File:Kunsthaus_Bregenz.jpg" xlink:title="dp:DigitalPhoto, dp:DigitalP\nhoto:\nhttps://commons.wikimedia.org/wiki/File:Kunsthaus_Bregenz.jpg"><polygon points="318,-240.5 1.7053e-13,-240.5 0,-193.5 318,-193.5 318,-240.5" stroke="#000" fill="none"/><text text-anchor="middle" x="159" y="-227.5" font-family="Times New Roman" font-size="10" fill="#00f">dp:DigitalPhoto, dp:DigitalP</text><text text-anchor="middle" x="159" y="-214.5" font-family="Times New Roman" font-size="10" fill="#00f">hoto:</text><text text-anchor="middle" x="159" y="-201.5" font-family="Times New Roman" font-size="10" fill="#00f">https://commons.wikimedia.org/wiki/File:Kunsthaus_Bregenz.jpg</text></a></g><g class="edge"><title>https://commons.wikimedia.org/wiki/File:Kunsthaus_Bregenz.jpg-&gt;http://sws.geonames.org/2781503</title><path d="M195-240c47-29 133-79 213-106 11-4 22-6 33-9" stroke="#00f" fill="none"/><polygon points="440.508,-358.471 451,-357 441.881,-351.607 440.508,-358.471" fill="#00f" stroke="#00f"/><text text-anchor="middle" x="363" y="-343.5" font-family="Times New Roman" font-size="10">dp:location</text></g><g class="node"><title>&quot;Exposure time:1/500 sec (0.002);F-number:f/3.5&quot;</title><text text-anchor="middle" x="535" y="-314.5" font-family="Times New Roman" font-size="10">&quot;Exposure time:1/500 sec (0.002);F-number:f/3.5&quot;</text></g><g class="edge"><title>https://commons.wikimedia.org/wiki/File:Kunsthaus_Bregenz.jpg-&gt;&quot;Exposure time:1/500 sec (0.002);F-number:f/3.5&quot;</title><path d="M237-240c49-14 113-33 171-48 12-3 24-6 36-8" stroke="#00f" fill="none"/><polygon points="443.416,-299.479 454,-299 445.427,-292.774 443.416,-299.479" fill="#00f" stroke="#00f"/><text text-anchor="middle" x="363" y="-285.5" font-family="Times New Roman" font-size="10">dp:details</text></g><g class="node"><title>http://www.dbpedialite.org/things/3790493</title><a xlink:href="http://www.dbpedialite.org/things/3790493" xlink:title="http://www.dbpedialite.org/things/3790493"><polygon points="643,-277.5 427,-277.5 427,-256.5 643,-256.5 643,-277.5" stroke="#000" fill="none"/><text text-anchor="middle" x="535" y="-264.5" font-family="Times New Roman" font-size="10" fill="#00f">http://www.dbpedialite.org/things/3790493</text></a></g><g class="edge"><title>https://commons.wikimedia.org/wiki/File:Kunsthaus_Bregenz.jpg-&gt;http://www.dbpedialite.org/things/3790493</title><path d="M318-238c45-6 92-13 131-18" stroke="#00f" fill="none"/><polygon points="448.701,-259.488 459,-257 449.398,-252.522 448.701,-259.488" fill="#00f" stroke="#00f"/><text text-anchor="middle" x="363" y="-250.5" font-family="Times New Roman" font-size="10">dp:camera</text></g><g class="node"><title>&quot;2004-08-28T13:33&quot;</title><text text-anchor="middle" x="535" y="-214.5" font-family="Times New Roman" font-size="10">&quot;2004-08-28T13:33&quot;</text></g><g class="edge"><title>https://commons.wikimedia.org/wiki/File:Kunsthaus_Bregenz.jpg-&gt;&quot;2004-08-28T13:33&quot;</title><path d="M318-217h151" stroke="#00f" fill="none"/><polygon points="469,-220.5 479,-217 469,-213.5 469,-220.5" fill="#00f" stroke="#00f"/><text text-anchor="middle" x="363" y="-220.5" font-family="Times New Roman" font-size="10">dp:date</text></g><g class="node"><title>&quot;Florian Glöcklhofer&quot;</title><text text-anchor="middle" x="535" y="-156.5" font-family="Times New Roman" font-size="10">&quot;Florian Glöcklhofer&quot;</text></g><g class="edge"><title>https://commons.wikimedia.org/wiki/File:Kunsthaus_Bregenz.jpg-&gt;&quot;Florian Glöcklhofer&quot;</title><path d="M308-194c56 8 116 18 161 24" stroke="#00f" fill="none"/><polygon points="469.881,-173.393 479,-168 468.508,-166.529 469.881,-173.393" fill="#00f" stroke="#00f"/><text text-anchor="middle" x="363" y="-192.5" font-family="Times New Roman" font-size="10">dp:creator</text></g><g class="node"><title>&quot;Das berühmte Kunsthaus in Bregenz.&quot;</title><text text-anchor="middle" x="535" y="-98.5" font-family="Times New Roman" font-size="10">&quot;Das berühmte Kunsthaus in Bregenz.&quot;</text></g><g class="edge"><title>https://commons.wikimedia.org/wiki/File:Kunsthaus_Bregenz.jpg-&gt;&quot;Das berühmte Kunsthaus in Bregenz.&quot;</title><path d="M219-194c50 19 124 45 189 64l30 9" stroke="#00f" fill="none"/><polygon points="438.881,-124.393 448,-119 437.508,-117.529 438.881,-124.393" fill="#00f" stroke="#00f"/><text text-anchor="middle" x="363" y="-156.5" font-family="Times New Roman" font-size="10">dp:description</text></g><g class="node"><title>&quot;Kunsthaus Bregenz&quot;</title><text text-anchor="middle" x="535" y="-40.5" font-family="Times New Roman" font-size="10">&quot;Kunsthaus Bregenz&quot;</text></g><g class="edge"><title>https://commons.wikimedia.org/wiki/File:Kunsthaus_Bregenz.jpg-&gt;&quot;Kunsthaus Bregenz&quot;</title><path d="M191-194c46 33 134 91 217 122 19 7 40 13 59 17" stroke="#00f" fill="none"/><polygon points="467.881,-58.3933 477,-53 466.508,-51.5292 467.881,-58.3933" fill="#00f" stroke="#00f"/><text text-anchor="middle" x="363" y="-109.5" font-family="Times New Roman" font-size="10">dp:title</text></g></g></svg>

<?xml version="1.0" encoding="UTF-8" standalone="no"?>
<!DOCTYPE svg PUBLIC "-//W3C//DTD SVG 1.0//EN" "http://www.w3.org/TR/2001/REC-SVG-20010904/DTD/svg10.dtd" [
 <!ATTLIST svg xmlns:xlink CDATA #FIXED "http://www.w3.org/1999/xlink">
]>
<!-- Generated by Graphviz version 2.20.2 (Tue Feb &#160;9 23:19:36 UTC 2010)
     For user: (root) root -->
<!-- Title: d1e138 Pages: 1 -->
<svg width="670pt" height="385pt" viewBox="0.00 0.00 670.00 385.00" xmlns="http://www.w3.org/2000/svg" xmlns:xlink="http://www.w3.org/1999/xlink">
<g id="graph0" class="graph" transform="scale(1 1) rotate(0) translate(4 381)">
<title>d1e138</title>
<polygon style="fill:white;stroke:white;" points="-4,4 -4,-381 666,-381 666,4 -4,4"/>
<text text-anchor="middle" x="331" y="-7.9" style="font-family:Times New Roman;font-size:14.00px;">Powered by http://rhizomik.net</text>
<!-- http://sws.geonames.org/2781503 -->
<g id="node1" class="node"><title>http://sws.geonames.org/2781503</title>
<a xlink:href="http://sws.geonames.org/2781503" xlink:title="http://sws.geonames.org/2781503">
<polygon style="fill:none;stroke:black;" points="625,-377.5 445,-377.5 445,-356.5 625,-356.5 625,-377.5"/>
<text text-anchor="middle" x="535" y="-364.5" style="font-family:Times New Roman;font-size:10.00px;fill:blue;">http://sws.geonames.org/2781503</text>
</a>
</g>
<!-- https://commons.wikimedia.org/wiki/File:Kunsthaus_Bregenz.jpg -->
<g id="node2" class="node"><title>https://commons.wikimedia.org/wiki/File:Kunsthaus_Bregenz.jpg</title>
<a xlink:href="https://commons.wikimedia.org/wiki/File:Kunsthaus_Bregenz.jpg" xlink:title="dp:DigitalPhoto, dp:DigitalP\nhoto:\nhttps://commons.wikimedia.org/wiki/File:Kunsthaus_Bregenz.jpg">
<polygon style="fill:none;stroke:black;" points="318,-240.5 1.7053e-13,-240.5 0,-193.5 318,-193.5 318,-240.5"/>
<text text-anchor="middle" x="159" y="-227.5" style="font-family:Times New Roman;font-size:10.00px;fill:blue;">dp:DigitalPhoto, dp:DigitalP</text>
<text text-anchor="middle" x="159" y="-214.5" style="font-family:Times New Roman;font-size:10.00px;fill:blue;">hoto:</text>
<text text-anchor="middle" x="159" y="-201.5" style="font-family:Times New Roman;font-size:10.00px;fill:blue;">https://commons.wikimedia.org/wiki/File:Kunsthaus_Bregenz.jpg</text>
</a>
</g>
<!-- https://commons.wikimedia.org/wiki/File:Kunsthaus_Bregenz.jpg&#45;&gt;http://sws.geonames.org/2781503 -->
<g id="edge6" class="edge"><title>https://commons.wikimedia.org/wiki/File:Kunsthaus_Bregenz.jpg-&gt;http://sws.geonames.org/2781503</title>
<path style="fill:none;stroke:blue;" d="M195,-240C242,-269 328,-319 408,-346 419,-350 430,-352 441,-355"/>
<polygon style="fill:blue;stroke:blue;" points="440.508,-358.471 451,-357 441.881,-351.607 440.508,-358.471"/>
<text text-anchor="middle" x="363" y="-343.5" style="font-family:Times New Roman;font-size:10.00px;">dp:location</text>
</g>
<!-- &quot;Exposure time:1/500 sec (0.002);F&#45;number:f/3.5&quot; -->
<g id="node4" class="node"><title>"Exposure time:1/500 sec (0.002);F-number:f/3.5"</title>
<text text-anchor="middle" x="535" y="-314.5" style="font-family:Times New Roman;font-size:10.00px;">"Exposure time:1/500 sec (0.002);F-number:f/3.5"</text>
</g>
<!-- https://commons.wikimedia.org/wiki/File:Kunsthaus_Bregenz.jpg&#45;&gt;&quot;Exposure time:1/500 sec (0.002);F&#45;number:f/3.5&quot; -->
<g id="edge2" class="edge"><title>https://commons.wikimedia.org/wiki/File:Kunsthaus_Bregenz.jpg-&gt;"Exposure time:1/500 sec (0.002);F-number:f/3.5"</title>
<path style="fill:none;stroke:blue;" d="M237,-240C286,-254 350,-273 408,-288 420,-291 432,-294 444,-296"/>
<polygon style="fill:blue;stroke:blue;" points="443.416,-299.479 454,-299 445.427,-292.774 443.416,-299.479"/>
<text text-anchor="middle" x="363" y="-285.5" style="font-family:Times New Roman;font-size:10.00px;">dp:details</text>
</g>
<!-- http://www.dbpedialite.org/things/3790493 -->
<g id="node6" class="node"><title>http://www.dbpedialite.org/things/3790493</title>
<a xlink:href="http://www.dbpedialite.org/things/3790493" xlink:title="http://www.dbpedialite.org/things/3790493">
<polygon style="fill:none;stroke:black;" points="643,-277.5 427,-277.5 427,-256.5 643,-256.5 643,-277.5"/>
<text text-anchor="middle" x="535" y="-264.5" style="font-family:Times New Roman;font-size:10.00px;fill:blue;">http://www.dbpedialite.org/things/3790493</text>
</a>
</g>
<!-- https://commons.wikimedia.org/wiki/File:Kunsthaus_Bregenz.jpg&#45;&gt;http://www.dbpedialite.org/things/3790493 -->
<g id="edge4" class="edge"><title>https://commons.wikimedia.org/wiki/File:Kunsthaus_Bregenz.jpg-&gt;http://www.dbpedialite.org/things/3790493</title>
<path style="fill:none;stroke:blue;" d="M318,-238C363,-244 410,-251 449,-256"/>
<polygon style="fill:blue;stroke:blue;" points="448.701,-259.488 459,-257 449.398,-252.522 448.701,-259.488"/>
<text text-anchor="middle" x="363" y="-250.5" style="font-family:Times New Roman;font-size:10.00px;">dp:camera</text>
</g>
<!-- &quot;2004&#45;08&#45;28T13:33&quot; -->
<g id="node9" class="node"><title>"2004-08-28T13:33"</title>
<text text-anchor="middle" x="535" y="-214.5" style="font-family:Times New Roman;font-size:10.00px;">"2004-08-28T13:33"</text>
</g>
<!-- https://commons.wikimedia.org/wiki/File:Kunsthaus_Bregenz.jpg&#45;&gt;&quot;2004&#45;08&#45;28T13:33&quot; -->
<g id="edge8" class="edge"><title>https://commons.wikimedia.org/wiki/File:Kunsthaus_Bregenz.jpg-&gt;"2004-08-28T13:33"</title>
<path style="fill:none;stroke:blue;" d="M318,-217C371,-217 427,-217 469,-217"/>
<polygon style="fill:blue;stroke:blue;" points="469,-220.5 479,-217 469,-213.5 469,-220.5"/>
<text text-anchor="middle" x="363" y="-220.5" style="font-family:Times New Roman;font-size:10.00px;">dp:date</text>
</g>
<!-- &quot;Florian Glöcklhofer&quot; -->
<g id="node11" class="node"><title>"Florian Glöcklhofer"</title>
<text text-anchor="middle" x="535" y="-156.5" style="font-family:Times New Roman;font-size:10.00px;">"Florian Glöcklhofer"</text>
</g>
<!-- https://commons.wikimedia.org/wiki/File:Kunsthaus_Bregenz.jpg&#45;&gt;&quot;Florian Glöcklhofer&quot; -->
<g id="edge10" class="edge"><title>https://commons.wikimedia.org/wiki/File:Kunsthaus_Bregenz.jpg-&gt;"Florian Glöcklhofer"</title>
<path style="fill:none;stroke:blue;" d="M308,-194C364,-186 424,-176 469,-170"/>
<polygon style="fill:blue;stroke:blue;" points="469.881,-173.393 479,-168 468.508,-166.529 469.881,-173.393"/>
<text text-anchor="middle" x="363" y="-192.5" style="font-family:Times New Roman;font-size:10.00px;">dp:creator</text>
</g>
<!-- &quot;Das berühmte Kunsthaus in Bregenz.&quot; -->
<g id="node13" class="node"><title>"Das berühmte Kunsthaus in Bregenz."</title>
<text text-anchor="middle" x="535" y="-98.5" style="font-family:Times New Roman;font-size:10.00px;">"Das berühmte Kunsthaus in Bregenz."</text>
</g>
<!-- https://commons.wikimedia.org/wiki/File:Kunsthaus_Bregenz.jpg&#45;&gt;&quot;Das berühmte Kunsthaus in Bregenz.&quot; -->
<g id="edge12" class="edge"><title>https://commons.wikimedia.org/wiki/File:Kunsthaus_Bregenz.jpg-&gt;"Das berühmte Kunsthaus in Bregenz."</title>
<path style="fill:none;stroke:blue;" d="M219,-194C269,-175 343,-149 408,-130 418,-127 428,-124 438,-121"/>
<polygon style="fill:blue;stroke:blue;" points="438.881,-124.393 448,-119 437.508,-117.529 438.881,-124.393"/>
<text text-anchor="middle" x="363" y="-156.5" style="font-family:Times New Roman;font-size:10.00px;">dp:description</text>
</g>
<!-- &quot;Kunsthaus Bregenz&quot; -->
<g id="node15" class="node"><title>"Kunsthaus Bregenz"</title>
<text text-anchor="middle" x="535" y="-40.5" style="font-family:Times New Roman;font-size:10.00px;">"Kunsthaus Bregenz"</text>
</g>
<!-- https://commons.wikimedia.org/wiki/File:Kunsthaus_Bregenz.jpg&#45;&gt;&quot;Kunsthaus Bregenz&quot; -->
<g id="edge14" class="edge"><title>https://commons.wikimedia.org/wiki/File:Kunsthaus_Bregenz.jpg-&gt;"Kunsthaus Bregenz"</title>
<path style="fill:none;stroke:blue;" d="M191,-194C237,-161 325,-103 408,-72 427,-65 448,-59 467,-55"/>
<polygon style="fill:blue;stroke:blue;" points="467.881,-58.3933 477,-53 466.508,-51.5292 467.881,-58.3933"/>
<text text-anchor="middle" x="363" y="-109.5" style="font-family:Times New Roman;font-size:10.00px;">dp:title</text>
</g>
</g>
</svg>
